Numix-Circle/48x48/apps/redshift.svg

<?xml version="1.0" encoding="UTF-8" standalone="no"?>
<svg
   xmlns:dc="http://purl.org/dc/elements/1.1/"
   xmlns:cc="http://creativecommons.org/ns#"
   xmlns:rdf="http://www.w3.org/1999/02/22-rdf-syntax-ns#"
   xmlns:svg="http://www.w3.org/2000/svg"
   xmlns="http://www.w3.org/2000/svg"
   xmlns:xlink="http://www.w3.org/1999/xlink"
   xmlns:sodipodi="http://sodipodi.sourceforge.net/DTD/sodipodi-0.dtd"
   xmlns:inkscape="http://www.inkscape.org/namespaces/inkscape"
   width="48"
   viewBox="0 0 13.546667 13.546667"
   height="48"
   id="svg2"
   version="1.1"
   inkscape:version="0.91 r13725"
   sodipodi:docname="redshift.svg">
  <metadata
     id="metadata331">
    <rdf:RDF>
      <cc:Work
         rdf:about="">
        <dc:format>image/svg+xml</dc:format>
        <dc:type
           rdf:resource="http://purl.org/dc/dcmitype/StillImage" />
        <dc:title />
      </cc:Work>
    </rdf:RDF>
  </metadata>
  <sodipodi:namedview
     pagecolor="#ffffff"
     bordercolor="#666666"
     borderopacity="1"
     objecttolerance="10"
     gridtolerance="10"
     guidetolerance="10"
     inkscape:pageopacity="0"
     inkscape:pageshadow="2"
     inkscape:window-width="1366"
     inkscape:window-height="713"
     id="namedview329"
     showgrid="true"
     inkscape:zoom="19.779424"
     inkscape:cx="24.407993"
     inkscape:cy="23.057676"
     inkscape:window-x="0"
     inkscape:window-y="28"
     inkscape:window-maximized="1"
     inkscape:current-layer="layer3"
     showguides="true"
     inkscape:guide-bbox="true">
    <inkscape:grid
       type="xygrid"
       id="grid3308" />
  </sodipodi:namedview>
  <defs
     id="defs4">
    <linearGradient
       id="linearGradient4146">
      <stop
         style="stop-color:#df5a48;stop-opacity:1;"
         offset="0"
         id="stop4148" />
      <stop
         style="stop-color:#e56452;stop-opacity:1;"
         offset="1"
         id="stop4151" />
    </linearGradient>
    <linearGradient
       inkscape:collect="always"
       xlink:href="#linearGradient4146"
       id="linearGradient4153"
       x1="-27"
       y1="13"
       x2="-24"
       y2="13"
       gradientUnits="userSpaceOnUse" />
  </defs>
  <g
     inkscape:groupmode="layer"
     id="layer1"
     inkscape:label="Shadow"
     sodipodi:insensitive="true">
    <path
       style="opacity:0.05;fill:#000000;fill-opacity:1;stroke:none"
       d="M 25,2 C 12.297451,2 2,12.297451 2,25 2,31.367153 4.6007106,37.116628 8.78125,41.28125 12.865755,44.99361 18.29568,47.25 24.25,47.25 c 12.702549,0 23,-10.297451 23,-23 0,-5.95432 -2.25639,-11.384245 -5.96875,-15.46875 C 37.116628,4.6007105 31.367153,2 25,2 z M 41.28125,8.78125 C 45.135604,12.894061 47.5,18.418655 47.5,24.5 c 0,12.702549 -10.297451,23 -23,23 C 18.418655,47.5 12.894061,45.135604 8.78125,41.28125 12.940939,45.4251 18.664604,48 25,48 37.702549,48 48,37.702549 48,25 48,18.664604 45.4251,12.940939 41.28125,8.78125 z"
       transform="scale(0.28222223,0.28222223)"
       id="path3978"
       inkscape:connector-curvature="0" />
    <path
       style="opacity:0.1;fill:#000000;fill-opacity:1;stroke:none"
       d="M 41.28125,8.78125 C 44.99361,12.865755 47.25,18.29568 47.25,24.25 c 0,12.702549 -10.297451,23 -23,23 -5.95432,0 -11.384245,-2.25639 -15.46875,-5.96875 C 12.894061,45.135604 18.418655,47.5 24.5,47.5 c 12.702549,0 23,-10.297451 23,-23 0,-6.081345 -2.364396,-11.605939 -6.21875,-15.71875 z"
       transform="scale(0.28222223,0.28222223)"
       id="path3976"
       inkscape:connector-curvature="0" />
    <path
       transform="matrix(4.3274074,0,0,3.2455556,117.19278,-35.348334)"
       d="m -24,13 a 1.5,2 0 1 1 -3,0 1.5,2 0 1 1 3,0 z"
       sodipodi:ry="2"
       sodipodi:rx="1.5"
       sodipodi:cy="13"
       sodipodi:cx="-25.5"
       id="path3952"
       style="opacity:0.2;fill:#000000;fill-opacity:1;stroke:none"
       sodipodi:type="arc" />
  </g>
  <g
     inkscape:groupmode="layer"
     id="layer2"
     inkscape:label="Base">
    <path
       sodipodi:type="arc"
       style="fill:url(#linearGradient4153);fill-opacity:1;stroke:none"
       id="path3942"
       sodipodi:cx="-25.5"
       sodipodi:cy="13"
       sodipodi:rx="1.5"
       sodipodi:ry="2"
       d="m -24,13 a 1.5,2 0 1 1 -3,0 1.5,2 0 1 1 3,0 z"
       transform="matrix(0,-4.3274075,3.2455556,0,-35.429918,-103.60974)" />
    <path
       style="opacity:0.1;fill:#000000;fill-opacity:1;stroke:none"
       d="M 40.03125 7.53125 C 43.74361 11.615755 46 17.04568 46 23 C 46 35.702549 35.702549 46 23 46 C 17.04568 46 11.615755 43.74361 7.53125 40.03125 C 11.709416 44.322508 17.537578 47 24 47 C 36.702549 47 47 36.702549 47 24 C 47 17.537578 44.322508 11.709416 40.03125 7.53125 z "
       transform="scale(0.28222223,0.28222223)"
       id="path4027" />
  </g>
  <g
     inkscape:groupmode="layer"
     id="layer3"
     inkscape:label="Symbol">
    <g
       id="g4246"
       style="opacity:0.1;fill:#000000;fill-opacity:1"
       transform="translate(0.28222222,0.28222271)">
      <path
         style="fill:#000000;fill-opacity:1;fill-rule:nonzero;stroke:none"
         d="M 25 12 C 23.88768 12 22.788097 12.1955 21.71875 12.5625 C 20.645406 12.9295 19.691232 13.4255 18.84375 14.0625 C 17.99227 14.7025 17.303931 15.50375 16.78125 16.46875 C 16.262567 17.43375 16 18.47675 16 19.59375 C 16 21.34375 16.60224 22.848 17.8125 24.125 C 18.340177 24.676 18.777213 25.16375 19.125 25.59375 C 19.46879 26.01875 19.804465 26.57075 20.15625 27.21875 C 20.501879 27.85934 20.694973 28.445407 20.75 29 C 20.767035 29.010483 20.783754 29.016977 20.800781 29.027344 L 20.763672 29.027344 C 20.213009 29.344344 19.9375 29.808969 19.9375 30.417969 C 19.9375 30.835969 20.080134 31.194999 20.376953 31.5 C 20.084131 31.805 19.9375 32.164031 19.9375 32.582031 C 19.9375 33.172032 20.201837 33.629125 20.728516 33.953125 C 20.571614 34.215125 20.501953 34.48 20.501953 34.75 C 20.501953 35.269 20.685867 35.668126 21.056641 35.953125 C 21.423416 36.234126 21.877253 36.375 22.419922 36.375 C 22.650781 36.871001 22.999945 37.265598 23.472656 37.558594 C 23.936373 37.85159 24.445339 38 25 38 C 25.549664 38 26.052679 37.85159 26.525391 37.558594 C 26.998102 37.265594 27.350126 36.871001 27.583984 36.375 C 28.122655 36.375 28.570724 36.234123 28.9375 35.953125 C 29.308274 35.668125 29.496094 35.27 29.496094 34.75 C 29.496094 34.48 29.419487 34.215124 29.267578 33.953125 C 29.794256 33.629125 30.054688 33.172032 30.054688 32.582031 C 30.054688 32.164031 29.91001 31.805001 29.617188 31.5 C 29.910009 31.195 30.054688 30.835969 30.054688 30.417969 C 30.054688 29.807969 29.779088 29.343343 29.232422 29.027344 L 29.181641 29.027344 C 29.193313 29.016988 29.207141 29.010465 29.21875 29 C 29.27016 28.446321 29.495176 27.85934 29.84375 27.21875 C 30.195535 26.57075 30.527212 26.01975 30.875 25.59375 C 31.222787 25.16375 31.660822 24.676 32.1875 24.125 C 33.394762 22.848 34 21.34375 34 19.59375 C 34 18.47275 33.738432 17.43375 33.21875 16.46875 C 32.69507 15.50375 32.00773 14.7035 31.15625 14.0625 C 30.308768 13.4255 29.354594 12.9295 28.28125 12.5625 C 27.211903 12.195501 26.11232 12 25 12 z "
         transform="matrix(0.28222223,0,0,0.28222223,-0.28222222,-0.28222271)"
         id="path4244" />
    </g>
    <g
       id="g3358">
      <path
         style="fill:#f2d473;fill-opacity:1;fill-rule:nonzero;stroke:none"
         inkscape:connector-curvature="0"
         d="M 7.018858,3.4560934 8.7630544,4.1385067 8.800567,5.6941157 8.0799296,6.8704179 7.5874705,7.8570669 7.2845489,8.122638 6.2223491,8.2360913 5.8432741,7.6287491 4.97174,6.1493401 4.5551523,5.0492379 4.8955865,4.1385067 5.9577863,3.6082112 M 7.018858,3.4560934"
         id="path55" />
      <path
         sodipodi:nodetypes="scscsccccccccscccscccsccccccccscccs"
         inkscape:connector-curvature="0"
         transform="scale(0.28222223,0.28222223)"
         id="path4197"
         d="m 24,11 c -1.11232,0 -2.211903,0.1955 -3.28125,0.5625 -1.073344,0.367 -2.027518,0.863 -2.875,1.5 -0.85148,0.64 -1.539819,1.44125 -2.0625,2.40625 -0.518683,0.965 -0.78125,2.008 -0.78125,3.125 0,1.75 0.60224,3.25425 1.8125,4.53125 0.527677,0.551 0.964713,1.03875 1.3125,1.46875 0.34379,0.425 0.679465,0.977 1.03125,1.625 C 19.501879,26.85934 19.694973,27.445407 19.75,28 L 22,30 C 21.847094,28.36 21.026336,24.477 19.53125,22.75 19.410324,22.629 19.241852,22.437502 19,22.1875 18.762146,21.941502 18.554429,21.750001 18.4375,21.625 17.641986,20.734 17.25,19.73475 17.25,18.59375 c 0,-0.813 0.223245,-1.58225 0.625,-2.28125 0.405752,-0.699 0.914895,-1.27375 1.5625,-1.71875 0.651602,-0.446 1.363734,-0.8085 2.15625,-1.0625 0.788518,-0.253999 1.597744,-0.375 2.40625,-0.375 0.807507,0 1.617732,0.121 2.40625,0.375 0.792516,0.254 1.504648,0.6175 2.15625,1.0625 0.647604,0.446 1.187998,1.01975 1.59375,1.71875 0.401755,0.7 0.59375,1.46825 0.59375,2.28125 0,1.141 -0.390987,2.14025 -1.1875,3.03125 -0.116928,0.125 -0.293396,0.3165 -0.53125,0.5625 C 28.789398,22.4375 28.616928,22.629 28.5,22.75 27.000916,24.48 26.151907,28.363 26,30 l 2.21875,-2 c 0.05141,-0.553679 0.276426,-1.14066 0.625,-1.78125 0.351785,-0.648 0.683462,-1.199 1.03125,-1.625 0.347787,-0.43 0.785822,-0.91775 1.3125,-1.46875 C 32.394762,21.848 33,20.34375 33,18.59375 c 0,-1.121 -0.261568,-2.16 -0.78125,-3.125 -0.52368,-0.965 -1.21102,-1.76525 -2.0625,-2.40625 -0.847482,-0.637 -1.801656,-1.133 -2.875,-1.5 C 26.211903,11.195501 25.11232,11 24,11 Z"
         style="fill:#f2d473;fill-opacity:1;fill-rule:nonzero;stroke:none" />
      <path
         style="fill:#d0d4d4;fill-opacity:1;fill-rule:nonzero;stroke:none"
         inkscape:connector-curvature="0"
         d="m 6.2088891,7.9022224 1.1288889,0 m 0.6298957,0.00762 c 0.1542813,0.089182 0.2324091,0.2204156 0.2324091,0.3925711 0,0.1179689 -0.040897,0.2192867 -0.1235378,0.3053645 0.082641,0.086078 0.1235378,0.1873955 0.1235378,0.3053644 0,0.1665112 -0.073897,0.2954867 -0.2225373,0.3869267 0.042872,0.073942 0.064871,0.1487311 0.064871,0.2249311 0,0.1467556 -0.053025,0.25908 -0.1576658,0.3395134 -0.1035123,0.079304 -0.2301527,0.1190978 -0.3821776,0.1190978 -0.066,0.1399826 -0.1652812,0.2514596 -0.2986908,0.3341506 -0.1334096,0.08269 -0.2755628,0.12446 -0.4306902,0.12446 -0.1565377,0 -0.299819,-0.04177 -0.4306901,-0.12446 -0.1334096,-0.08269 -0.2324091,-0.194168 -0.2975626,-0.3341506 -0.1531531,0 -0.2809217,-0.039793 -0.384434,-0.1190978 -0.1046405,-0.080433 -0.1565377,-0.19304 -0.1565377,-0.3395134 0,-0.0762 0.019744,-0.1509889 0.064025,-0.2249311 -0.1486403,-0.09144 -0.2236655,-0.2204155 -0.2236655,-0.3869267 0,-0.1179689 0.041743,-0.2192866 0.124384,-0.3053644 C 5.3849422,8.5217 5.3443272,8.4203824 5.3443272,8.3024135 c 0,-0.1718733 0.078128,-0.3031066 0.2335373,-0.3925711"
         id="path57"
         sodipodi:nodetypes="cccscscsccsscccscscsc" />
      <path
         id="rect4200"
         transform="scale(0.28222223,0.28222223)"
         d="M 19.6875,33 C 19.555818,33.24152 19.5,33.501572 19.5,33.75 c 0,0.0868 0.02095,0.169886 0.03125,0.25 l 8.9375,0 C 28.479237,33.919817 28.5,33.836966 28.5,33.75 28.5,33.501572 28.441374,33.241519 28.3125,33 l -8.625,0 z"
         style="fill:#ecf0f0;fill-opacity:1;stroke:none"
         inkscape:connector-curvature="0" />
      <path
         id="rect4202"
         transform="scale(0.28222223,0.28222223)"
         d="m 19.0625,31 c -0.07358,0.180125 -0.125,0.38475 -0.125,0.59375 0,0.1475 0.02935,0.275375 0.0625,0.40625 l 10,0 c 0.03278,-0.130875 0.0625,-0.25875 0.0625,-0.40625 0,-0.209 -0.05217,-0.413625 -0.125,-0.59375 l -9.875,0 z"
         style="fill:#ecf0f0;fill-opacity:1;stroke:none"
         inkscape:connector-curvature="0" />
      <path
         id="rect4204"
         transform="scale(0.28222223,0.28222223)"
         d="m 19,29 c -0.03456,0.134187 -0.0625,0.254 -0.0625,0.40625 0,0.209 0.02067,0.413625 0.09375,0.59375 l 9.90625,0 c 0.07283,-0.180125 0.125,-0.38475 0.125,-0.59375 C 29.0625,29.25375 29.034495,29.134313 29,29 l -10,0 z"
         style="fill:#ecf0f0;fill-opacity:1;stroke:none"
         inkscape:connector-curvature="0" />
      <rect
         ry="0.039824694"
         rx="0.039824694"
         transform="scale(0.28222223,0.28222223)"
         y="23"
         x="23"
         height="5"
         width="2"
         id="rect4215"
         style="fill:#495f6d;fill-opacity:1;stroke:none" />
      <path
         sodipodi:nodetypes="ccccccc"
         transform="scale(0.28222223,0.28222223)"
         inkscape:connector-curvature="0"
         id="path4217"
         d="m 25,23 -4,-5.5 -1.45,1 3.45,4.5 0,1 2,0 z"
         style="fill:#495f6d;fill-opacity:1;stroke:none" />
      <path
         style="fill:#495f6d;fill-opacity:1;stroke:none"
         d="m 6.4911113,6.4911113 1.1288889,-1.5522223 0.4092222,0.2822223 -0.9736666,1.27 0,0.2822222 -0.5644445,0 z"
         id="path4219"
         inkscape:connector-curvature="0"
         sodipodi:nodetypes="ccccccc" />
    </g>
  </g>
</svg>

<svg xmlns="http://www.w3.org/2000/svg" width="48" viewBox="0 0 13.546667 13.546667" height="48"><defs><linearGradient id="linearGradient4153" x1="-27" x2="-24" gradientUnits="userSpaceOnUse"><stop stop-color="#df5a48" stop-opacity="1"/><stop offset="1" stop-color="#e56452" stop-opacity="1"/></linearGradient></defs><g><path d="m 25 2 c -12.703 0 -23 10.297 -23 23 0 6.367 2.601 12.12 6.781 16.281 4.085 3.712 9.514 5.969 15.469 5.969 c 12.703 0 23 -10.297 23 -23 0 -5.954 -2.256 -11.384 -5.969 -15.469 c -4.165 -4.181 -9.914 -6.781 -16.281 -6.781 z m 16.281 6.781 c 3.854 4.113 6.219 9.637 6.219 15.719 c 0 12.703 -10.297 23 -23 23 c -6.081 0 -11.606 -2.364 -15.719 -6.219 4.16 4.144 9.883 6.719 16.219 6.719 12.703 0 23 -10.297 23 -23 0 -6.335 -2.575 -12.06 -6.719 -16.219 z" transform="scale(0.28222223,0.28222223)" opacity="0.05" fill="#000" stroke="none" fill-opacity="1"/><path d="m 41.28 8.781 c 3.712 4.085 5.969 9.514 5.969 15.469 c 0 12.703 -10.297 23 -23 23 -5.954 0 -11.384 -2.256 -15.469 -5.969 c 4.113 3.854 9.637 6.219 15.719 6.219 c 12.703 0 23 -10.297 23 -23 0 -6.081 -2.364 -11.606 -6.219 -15.719 z" transform="scale(0.28222223,0.28222223)" opacity="0.1" fill="#000" stroke="none" fill-opacity="1"/><path transform="matrix(4.3274074,0,0,3.2455556,117.19278,-35.348334)" d="m -24 13 a 1.5 2 0 1 1 -3 0 1.5 2 0 1 1 3 0 z" opacity="0.2" fill="#000" stroke="none" fill-opacity="1"/></g><g><path d="m -24 13 a 1.5 2 0 1 1 -3 0 1.5 2 0 1 1 3 0 z" transform="matrix(0,-4.3274075,3.2455556,0,-35.429918,-103.60974)" fill="url(#linearGradient4153)" stroke="none" fill-opacity="1"/><path d="m 40.03 7.531 c 3.712 4.085 5.969 9.514 5.969 15.469 c 0 12.703 -10.297 23 -23 23 c -5.954 0 -11.384 -2.256 -15.469 -5.969 c 4.178 4.291 10.01 6.969 16.469 6.969 c 12.703 0 23 -10.297 23 -23 c 0 -6.462 -2.677 -12.291 -6.969 -16.469 z" transform="scale(0.28222223,0.28222223)" opacity="0.1" fill="#000" stroke="none" fill-opacity="1"/></g><g><g transform="translate(0.28222222,0.28222271)" opacity="0.1" fill="#000" fill-opacity="1"><path d="m 25 12 c -1.112 0 -2.212 0.195 -3.281 0.563 c -1.073 0.367 -2.028 0.863 -2.875 1.5 c -0.851 0.64 -1.54 1.441 -2.063 2.406 c -0.519 0.965 -0.781 2.01 -0.781 3.125 c 0 1.75 0.602 3.254 1.813 4.531 c 0.528 0.551 0.965 1.039 1.313 1.469 c 0.344 0.425 0.679 0.977 1.031 1.625 c 0.346 0.641 0.539 1.227 0.594 1.781 c 0.017 0.001 0.034 0.017 0.051 0.027 l -0.037 0 c -0.551 0.317 -0.826 0.782 -0.826 1.391 c 0 0.418 0.143 0.777 0.439 1.082 c -0.293 0.305 -0.439 0.664 -0.439 1.082 c 0 0.59 0.264 1.047 0.791 1.371 c -0.157 0.262 -0.227 0.527 -0.227 0.797 c 0 0.519 0.184 0.918 0.555 1.203 c 0.367 0.281 0.821 0.422 1.363 0.422 c 0.231 0.496 0.58 0.891 1.053 1.184 c 0.464 0.293 0.973 0.441 1.527 0.441 c 0.55 0 1.053 -0.148 1.525 -0.441 c 0.473 -0.293 0.825 -0.688 1.059 -1.184 c 0.539 0 0.987 -0.141 1.354 -0.422 c 0.371 -0.285 0.559 -0.683 0.559 -1.203 c 0 -0.27 -0.077 -0.535 -0.229 -0.797 c 0.527 -0.324 0.787 -0.781 0.787 -1.371 c 0 -0.418 -0.145 -0.777 -0.438 -1.082 c 0.293 -0.305 0.438 -0.664 0.438 -1.082 c 0 -0.61 -0.276 -1.075 -0.822 -1.391 l -0.051 0 c 0.012 -0.001 0.026 -0.017 0.037 -0.027 c 0.051 -0.554 0.276 -1.141 0.625 -1.781 c 0.352 -0.648 0.683 -1.199 1.031 -1.625 c 0.348 -0.43 0.786 -0.918 1.313 -1.469 c 1.207 -1.277 1.813 -2.781 1.813 -4.531 c 0 -1.121 -0.262 -2.16 -0.781 -3.125 c -0.524 -0.965 -1.211 -1.765 -2.063 -2.406 c -0.847 -0.637 -1.802 -1.133 -2.875 -1.5 c -1.069 -0.367 -2.169 -0.563 -3.281 -0.563 z" transform="matrix(0.28222223,0,0,0.28222223,-0.28222222,-0.28222271)" fill="#000" fill-rule="nonzero" stroke="none"/></g><g><path d="m 7.02 3.456 1.744 0.682 0.038 1.556 -0.721 1.176 -0.492 0.987 -0.303 0.266 -1.062 0.113 -0.379 -0.607 -0.872 -1.479 -0.417 -1.1 0.34 -0.911 1.062 -0.53 m 1.061 -0.152" fill="#f2d473" fill-rule="nonzero" stroke="none" fill-opacity="1"/><path transform="scale(0.28222223,0.28222223)" d="m 24 11 c -1.112 0 -2.212 0.195 -3.281 0.563 -1.073 0.367 -2.028 0.863 -2.875 1.5 -0.851 0.64 -1.54 1.441 -2.063 2.406 -0.519 0.965 -0.781 2.01 -0.781 3.125 0 1.75 0.602 3.254 1.813 4.531 0.528 0.551 0.965 1.039 1.313 1.469 0.344 0.425 0.679 0.977 1.031 1.625 c 0.346 0.641 0.539 1.227 0.594 1.781 l 2.25 2 c -0.153 -1.64 -0.974 -5.523 -2.469 -7.25 -0.121 -0.121 -0.289 -0.312 -0.531 -0.563 -0.238 -0.246 -0.446 -0.437 -0.563 -0.563 -0.796 -0.891 -1.188 -1.89 -1.188 -3.03 c 0 -0.813 0.223 -1.582 0.625 -2.281 0.406 -0.699 0.915 -1.274 1.563 -1.719 0.652 -0.446 1.364 -0.809 2.156 -1.063 0.789 -0.254 1.598 -0.375 2.406 -0.375 0.808 0 1.618 0.121 2.406 0.375 0.793 0.254 1.505 0.617 2.156 1.063 0.648 0.446 1.188 1.02 1.594 1.719 0.402 0.7 0.594 1.468 0.594 2.281 0 1.141 -0.391 2.14 -1.188 3.03 -0.117 0.125 -0.293 0.317 -0.531 0.563 c -0.242 0.25 -0.414 0.442 -0.531 0.563 -1.499 1.73 -2.348 5.613 -2.5 7.25 l 2.219 -2 c 0.051 -0.554 0.276 -1.141 0.625 -1.781 0.352 -0.648 0.683 -1.199 1.031 -1.625 0.348 -0.43 0.786 -0.918 1.313 -1.469 c 1.207 -1.277 1.813 -2.781 1.813 -4.531 c 0 -1.121 -0.262 -2.16 -0.781 -3.125 -0.524 -0.965 -1.211 -1.765 -2.063 -2.406 -0.847 -0.637 -1.802 -1.133 -2.875 -1.5 c -1.069 -0.367 -2.169 -0.563 -3.281 -0.563" fill="#f2d473" fill-rule="nonzero" stroke="none" fill-opacity="1"/><path d="m 6.209 7.902 1.129 0 m 0.63 0.008 c 0.154 0.089 0.232 0.22 0.232 0.393 0 0.118 -0.041 0.219 -0.124 0.305 0.083 0.086 0.124 0.187 0.124 0.305 0 0.167 -0.074 0.295 -0.223 0.387 0.043 0.074 0.065 0.149 0.065 0.225 0 0.147 -0.053 0.259 -0.158 0.34 -0.104 0.079 -0.23 0.119 -0.382 0.119 -0.066 0.14 -0.165 0.251 -0.299 0.334 -0.133 0.083 -0.276 0.124 -0.431 0.124 -0.157 0 -0.3 -0.042 -0.431 -0.124 -0.133 -0.083 -0.232 -0.194 -0.298 -0.334 -0.153 0 -0.281 -0.04 -0.384 -0.119 -0.105 -0.08 -0.157 -0.193 -0.157 -0.34 0 -0.076 0.02 -0.151 0.064 -0.225 -0.149 -0.091 -0.224 -0.22 -0.224 -0.387 0 -0.118 0.042 -0.219 0.124 -0.305 c -0.084 -0.086 -0.124 -0.187 -0.124 -0.305 c 0 -0.172 0.078 -0.303 0.234 -0.393" fill="#d0d4d4" fill-rule="nonzero" stroke="none" fill-opacity="1"/><path transform="scale(0.28222223,0.28222223)" d="m 19.688 33 c -0.132 0.242 -0.188 0.502 -0.188 0.75 c 0 0.087 0.021 0.17 0.031 0.25 l 8.938 0 c 0.001 -0.08 0.031 -0.163 0.031 -0.25 0 -0.248 -0.059 -0.508 -0.188 -0.75 l -8.625 0 z" fill="#ecf0f0" stroke="none" fill-opacity="1"/><path transform="scale(0.28222223,0.28222223)" d="m 19.06 31 c -0.074 0.18 -0.125 0.385 -0.125 0.594 0 0.148 0.029 0.275 0.063 0.406 l 10 0 c 0.033 -0.131 0.063 -0.259 0.063 -0.406 0 -0.209 -0.052 -0.414 -0.125 -0.594 l -9.875 0 z" fill="#ecf0f0" stroke="none" fill-opacity="1"/><path transform="scale(0.28222223,0.28222223)" d="m 19 29 c -0.035 0.134 -0.063 0.254 -0.063 0.406 0 0.209 0.021 0.414 0.094 0.594 l 9.906 0 c 0.073 -0.18 0.125 -0.385 0.125 -0.594 c 0 -0.152 -0.028 -0.272 -0.063 -0.406 l -10 0 z" fill="#ecf0f0" stroke="none" fill-opacity="1"/><rect rx="0.04" transform="scale(0.28222223,0.28222223)" y="23" x="23" height="5" width="2" fill="#495f6d" stroke="none" fill-opacity="1"/><path transform="scale(0.28222223,0.28222223)" d="m 25 23 -4 -5.5 -1.45 1 3.45 4.5 0 1 2 0 z" fill="#495f6d" stroke="none" fill-opacity="1"/><path d="m 6.491 6.491 1.129 -1.552 0.409 0.282 -0.974 1.27 0 0.282 -0.564 0 z" fill="#495f6d" stroke="none" fill-opacity="1"/></g></g></svg>
